Adwaita++-Dark/apps/16/foursquare.svg

<svg height="16" viewBox="0 0 16 16" width="16" xmlns="http://www.w3.org/2000/svg" xmlns:xlink="http://www.w3.org/1999/xlink">
  <clipPath id="_clipPath_Ncx69QJ8OVId933q6kyuBZHbqH00gX4c">
    <path d="m0 0h16v16h-16z"/>
  </clipPath>
  <g clip-path="url(#_clipPath_Ncx69QJ8OVId933q6kyuBZHbqH00gX4c)">
    <path d="m0 0h16v16h-16z" fill="none"/>
    <path d="m3.696 0c-.8 0-1.461.662-1.461 1.461v13.674c0 .371.263.71.57.821.342.109.715.011.959-.251l4.611-5.478h2.511c.699-.008 1.299-.502 1.438-1.187l1.416-7.305c.171-.888-.534-1.735-1.439-1.735zm0 1.461h8.605l-.57 2.922h-4.771c-.187.004-.338.155-.342.342v.776c0 .183.159.343.342.343h4.497l-.571 2.922h-2.876c-.218-.006-.428.086-.571.251l-3.743 4.497z" fill="#e6ddff"/>
  </g>
</svg>

<svg xmlns="http://www.w3.org/2000/svg" style="isolation:isolate" width="16" height="16" viewBox="0 0 16 16">
 <defs>
  <style id="current-color-scheme" type="text/css">
   .ColorScheme-Text { color:#E6DDFF; } .ColorScheme-Highlight { color:#5294e2; }
  </style>
  <linearGradient id="arrongin" x1="0%" x2="0%" y1="0%" y2="100%">
   <stop offset="0%" style="stop-color:#dd9b44"/>
   <stop offset="100%" style="stop-color:#ad6c16"/>
  </linearGradient>
  <linearGradient id="aurora" x1="0%" x2="0%" y1="0%" y2="100%">
   <stop offset="0%" style="stop-color:#09D4DF"/>
   <stop offset="100%" style="stop-color:#9269F4"/>
  </linearGradient>
  <linearGradient id="fitdance" x1="0%" x2="0%" y1="0%" y2="100%">
   <stop offset="0%" style="stop-color:#1AD6AB"/>
   <stop offset="100%" style="stop-color:#329DB6"/>
  </linearGradient>
  <linearGradient id="oomox" x1="0%" x2="0%" y1="0%" y2="100%">
   <stop offset="0%" style="stop-color:#efefe7"/>
   <stop offset="100%" style="stop-color:#8f8f8b"/>
  </linearGradient>
  <linearGradient id="rainblue" x1="0%" x2="0%" y1="0%" y2="100%">
   <stop offset="0%" style="stop-color:#00F260"/>
   <stop offset="100%" style="stop-color:#0575E6"/>
  </linearGradient>
  <linearGradient id="sunrise" x1="0%" x2="0%" y1="0%" y2="100%">
   <stop offset="0%" style="stop-color:#FF8501"/>
   <stop offset="100%" style="stop-color:#FFCB01"/>
  </linearGradient>
  <linearGradient id="telinkrin" x1="0%" x2="0%" y1="0%" y2="100%">
   <stop offset="0%" style="stop-color:#b2ced6"/>
   <stop offset="100%" style="stop-color:#6da5b7"/>
  </linearGradient>
  <linearGradient id="60spsycho" x1="0%" x2="0%" y1="0%" y2="100%">
   <stop offset="0%" style="stop-color:#df5940"/>
   <stop offset="25%" style="stop-color:#d8d15f"/>
   <stop offset="50%" style="stop-color:#e9882a"/>
   <stop offset="100%" style="stop-color:#279362"/>
  </linearGradient>
  <linearGradient id="90ssummer" x1="0%" x2="0%" y1="0%" y2="100%">
   <stop offset="0%" style="stop-color:#f618c7"/>
   <stop offset="20%" style="stop-color:#94ffab"/>
   <stop offset="50%" style="stop-color:#fbfd54"/>
   <stop offset="100%" style="stop-color:#0f83ae"/>
  </linearGradient>
  <clipPath id="_clipPath_Ncx69QJ8OVId933q6kyuBZHbqH00gX4c">
   <rect width="16" height="16"/>
  </clipPath>
 </defs>
 <g clip-path="url(#_clipPath_Ncx69QJ8OVId933q6kyuBZHbqH00gX4c)">
  <rect fill-opacity="0" width="16" height="16"/>
  <path style="fill:currentColor" class="ColorScheme-Text" d="M 3.696 0 C 2.896 0 2.235 0.662 2.235 1.461 L 2.235 15.135 C 2.235 15.506 2.498 15.845 2.805 15.956 C 3.147 16.065 3.52 15.967 3.764 15.705 L 8.375 10.227 L 10.886 10.227 C 11.585 10.219 12.185 9.725 12.324 9.04 L 13.74 1.735 C 13.911 0.847 13.206 0 12.301 0 L 3.696 0 Z M 3.696 1.461 L 12.301 1.461 L 11.731 4.383 L 6.96 4.383 C 6.773 4.387 6.622 4.538 6.618 4.725 L 6.618 5.501 C 6.618 5.684 6.777 5.844 6.96 5.844 L 11.457 5.844 L 10.886 8.766 L 8.01 8.766 C 7.792 8.76 7.582 8.852 7.439 9.017 L 3.696 13.514 L 3.696 1.461 Z"/>
 </g>
</svg>
